svg/stove.svg

<svg xmlns="http://www.w3.org/2000/svg" viewBox="0 0 24 24"><path d="M6 14h2l3 3H9zM4 4h1V3a1 1 0 0 1 1-1h4a1 1 0 0 1 1 1v1h2V3a1 1 0 0 1 1-1h4a1 1 0 0 1 1 1v1h1a2 2 0 0 1 2 2v13a2 2 0 0 1-2 2v1h-3v-1H7v1H4v-1a2 2 0 0 1-2-2V6a2 2 0 0 1 2-2m14 3a1 1 0 0 1 1 1 1 1 0 0 1-1 1 1 1 0 0 1-1-1 1 1 0 0 1 1-1m-4 0a1 1 0 0 1 1 1 1 1 0 0 1-1 1 1 1 0 0 1-1-1 1 1 0 0 1 1-1m6-1H4v4h16zM4 19h16v-7H4zM6 7a1 1 0 0 1 1 1 1 1 0 0 1-1 1 1 1 0 0 1-1-1 1 1 0 0 1 1-1m7 7h2l3 3h-2z"/></svg>

<?xml version="1.0" encoding="UTF-8"?><!DOCTYPE svg PUBLIC "-//W3C//DTD SVG 1.1//EN" "http://www.w3.org/Graphics/SVG/1.1/DTD/svg11.dtd"><svg xmlns="http://www.w3.org/2000/svg" xmlns:xlink="http://www.w3.org/1999/xlink" version="1.1" id="mdi-stove" width="24" height="24" viewBox="0 0 24 24"><path d="M6,14H8L11,17H9L6,14M4,4H5V3A1,1 0 0,1 6,2H10A1,1 0 0,1 11,3V4H13V3A1,1 0 0,1 14,2H18A1,1 0 0,1 19,3V4H20A2,2 0 0,1 22,6V19A2,2 0 0,1 20,21V22H17V21H7V22H4V21A2,2 0 0,1 2,19V6A2,2 0 0,1 4,4M18,7A1,1 0 0,1 19,8A1,1 0 0,1 18,9A1,1 0 0,1 17,8A1,1 0 0,1 18,7M14,7A1,1 0 0,1 15,8A1,1 0 0,1 14,9A1,1 0 0,1 13,8A1,1 0 0,1 14,7M20,6H4V10H20V6M4,19H20V12H4V19M6,7A1,1 0 0,1 7,8A1,1 0 0,1 6,9A1,1 0 0,1 5,8A1,1 0 0,1 6,7M13,14H15L18,17H16L13,14Z" /></svg>
